X: 21031
T: The Milking Pail
%R: air, strathspey
B: James Oswald "The Caledonian Pocket Companion" v.2 p.103 #1
Z: 2019 John Chambers <jc:trillian.mit.edu>
M: C
L: 1/8
K: C
"_Slow" c2 |\
G2e2 (ed)(cB) | c3d e2A2 |\
(AG)(FE) F3G | ABcA TB3c |\
defd Te3f | (gf)(ed) cBAG | G6 :|\
|: d2 |\
(Bc)d2 d2e2 | ^GAB2 B2(cd) |
e2E2 Tc2(B>c) | A6 (Bc) |\
d2G2 TG3F | E2G2 Tc3B |\
A2c2 Tf3e | defd Tg2 Hz3f |\
Te2(dc) G2TB2 | c6 :|\
|: G2 |\
(cG)(Ge) e2 (d/c/)B | (c>e)(d>f) e2 (d/c/)B |
(cA)(GF) {F}E2(FG) | A2 (f/e/)d {c}B3c |\
d2 a/g/f {f}e3^f | g3B (dc)(BA) | G6 :|\
|: (dc) |\
(B/c/)d d4 (ef) | (^G/A/B) B4 (cd) |
(ec)(fd) (cB)(A^G) | {^G2}A6 (Bc) |\
(d<B)(A<G) G3F | (E>G)(G>c) c3B |\
A>B (c/d/e) f3e | (d<c) a>^f g2 Hz3=f |\
(e<g)(c<e) G2TB2 | c6 :|


